X:95
T:Passacaglia in C Major
C:Lully, J.B.
M:3/4
L:1/8
Q:1/4=58
K:C
|:G2|c4 cd|e2 dc B2|A4 AB|c4 G2|
c4 de|f2 ef g2|a2 bc' de'|c4:|

